X: 839
T: Gideyim de Göreyim...
C: Muallim İsmail Hakkı Bey
O: Turkey
F: http://compmusic.upf.edu/node/140
N: hicaz-zemzeme--sarki--aksak--gideyim_de--muallim_ismail_hakki_bey
N: makam= hicaz-zemzeme
N: form= sarki
N: usul= aksak = 9/8
M: 9/8
L: 1/16
K: C _7/8B ^c  
Q: 1/4=120
%%MIDI tuningsystem comma53
z4 d2ef eddc d4 ef | ed cBc2 d2cB BAA4B2  | 
w:  Gi de *  yim  *  *  *  de   |  *  *  *  *  gö re yim  *  *  *  tom  | 
A4 A2_1/4B2 =c2B2 e2d2 c2 | _1/4B3AA3/2=c/ BAA4_B4A2  | \
w:  *  bu lu mu   |  tom *  bu *  lu *  mu  ah    | 
_B2z2 A2d2 c2e2 d2c2 _7/8B2 | 
w:  *  O  gü zel  *  göz  | 
A3GA2 =B2A2 G2^F4ED  | D4 A2_B2 B2A2 G2^F2 G2 | \
w:  *  *  le ri  bek *  ler   |  *  yo lu mu   | 
A2 _B2=c2 BAA4B4A2  | 
w:  yo *  lu *  *  mu   SAZ  | 
_B2z2 A2d2 c2e2 d2c2 _7/8B2 | A3GA2 =B2A2 G2^F4ED  | \
w:  *  O  gü zel  *  göz  |  *  *  le ri  bek *  ler   | 
D4 A2_B2 B2A2 G2^F2 G2 | 
w:  *  yo lu mu   | 
A2 _B2=c2 BAA4e4d2  | e2z2 d2e2 e4 e2f2 g2 | \
w:  yo *  lu *  *  mu   SAZ  |  *  A ca ba  aş  | 
e4e2 f2e2 d2c4BA  | 
w:  *  kı  e lem *  le   | 
A2z2 A2_1/4B2 =c2B2 e2d2 c2 | _1/4B3AA3/2=c/ BAA4_B4A2  | \
w:  *  do lu  mu   |  ah  *  do *  lu  *  mu  ah    | 
_B2z2 A2d2 c2e2 d2c2 _7/8B2 | 
w:  *  O  gü zel  *  göz  | 
A3GA2 =B2A2 G2^F4ED  | D4 A2_B2 B2A2 G2^F2 G2 | \
w:  *  *  le ri  bek *  ler   |  *  yo lu mu   | 
A2 _B2=c2 BAA4B4A2  | 
w:  yo *  lu *  *  mu   SAZ  | 
_B2z2 A2d2 c2e2 d2c2 _7/8B2 | A3GA2 =B2A2 G2^F4ED  | \
w:  *  O  gü zel  *  göz  |  *  *  le ri  bek *  ler   | 
D4 A2_B2 B2A2 G2^F2 G2 | 
w:  *  yo lu mu   | 
A2 _B2=c2 BAA4|
w:  yo *  lu *  *  mu    | 


